lib/brands/logos/avanade.svg

<svg xmlns="http://www.w3.org/2000/svg" fill="none" aria-hidden="true" viewBox="0 0 203 59"><g id="Avanade"><g id="Group"><g id="Vector"><path fill="#FF5800" d="M72.175 24.7699C71.0406 24.7699 69.9935 24.8572 68.9463 25.119C68.0737 25.2935 67.201 25.5553 66.4157 25.9916L66.6775 29.1331C67.4628 28.8713 68.3355 28.6968 69.2081 28.6095C69.9935 28.5222 70.6916 28.435 71.4769 28.435C74.3566 28.435 75.7528 29.5694 75.7528 31.751V32.4491C74.7929 32.2745 73.9203 32.1873 72.9604 32.2745C70.8661 32.1873 68.7718 32.7109 67.0265 33.9325C65.6303 34.9797 64.7577 36.725 64.8449 38.5575C64.8449 42.5716 67.6374 44.5786 73.1349 44.5786C75.491 44.5786 77.8471 44.2296 80.116 43.5315V31.9255C80.116 27.2133 77.4108 24.7699 72.175 24.7699ZM75.7528 40.9136C74.8802 41.1754 73.9203 41.2626 72.9604 41.2626C70.3425 41.2626 69.0336 40.3028 69.0336 38.4702C69.0336 36.6377 70.4298 35.5033 73.3095 35.5033C74.0948 35.5033 74.8802 35.5033 75.6656 35.6778L75.7528 40.9136Z"/><path fill="#FF5800" d="M82.0358 25.2935H86.8352L91.4602 39.7792L96.1724 25.2935H100.71L93.5545 44.0551H89.1913L82.0358 25.2935Z"/><path fill="#FF5800" d="M109 24.7699C107.866 24.7699 106.818 24.8572 105.771 25.119C104.899 25.2935 104.026 25.5553 103.241 25.9916L103.59 29.1331C104.375 28.8713 105.248 28.6968 106.12 28.6095C106.906 28.5222 107.604 28.435 108.389 28.435C111.269 28.435 112.665 29.4821 112.665 31.751V32.4491C111.705 32.2745 110.745 32.2745 109.873 32.2745C107.778 32.1873 105.684 32.7109 103.939 33.9325C102.543 34.9797 101.67 36.725 101.757 38.5575C101.757 42.5716 104.55 44.5786 110.047 44.5786C112.403 44.5786 114.759 44.2296 117.028 43.5315V31.9255C116.941 27.2133 114.323 24.7699 109 24.7699ZM112.665 40.9136C111.792 41.1754 110.833 41.2626 109.873 41.2626C107.255 41.2626 105.946 40.3028 105.946 38.4702C105.946 36.6377 107.342 35.5033 110.222 35.5033C111.007 35.5033 111.792 35.5033 112.578 35.6778L112.665 40.9136Z"/><path fill="#FF5800" d="M133.608 32.9727C133.608 31.2274 133.259 30.093 132.648 29.4821C132.038 28.8713 130.816 28.5222 129.158 28.5222C128.634 28.5222 128.198 28.6095 127.762 28.6968C127.238 28.784 126.714 28.8713 126.191 29.0458V44.1423H121.828V26.1661C123.049 25.7298 124.358 25.2935 125.667 25.119C127.064 24.8572 128.46 24.7699 129.856 24.7699C135.354 24.7699 138.059 27.2133 138.059 32.1873V44.0551H133.696L133.608 32.9727Z"/><path fill="#FF5800" d="M148.705 24.7699C147.57 24.7699 146.523 24.8572 145.476 25.119C144.603 25.2935 143.731 25.5553 142.945 25.9916L143.294 29.1331C144.08 28.8713 144.952 28.6968 145.825 28.6095C146.61 28.5222 147.309 28.435 148.094 28.435C150.974 28.435 152.37 29.4821 152.37 31.751V32.4491C151.41 32.2745 150.537 32.2745 149.577 32.2745C147.483 32.1873 145.389 32.7109 143.644 33.9325C142.247 35.067 141.375 36.725 141.462 38.5575C141.462 42.5716 144.254 44.5786 149.752 44.5786C152.108 44.5786 154.464 44.2296 156.733 43.5315V31.9255C156.646 27.2133 153.941 24.7699 148.705 24.7699ZM152.283 40.9136C151.41 41.1754 150.45 41.2626 149.577 41.2626C146.96 41.2626 145.651 40.3028 145.651 38.4702C145.651 36.6377 147.047 35.5033 149.926 35.5033C150.712 35.5033 151.497 35.5033 152.283 35.6778V40.9136Z"/><path fill="#FF5800" d="M172.877 18.0507V25.2062C171.83 24.9444 170.782 24.7699 169.735 24.8572C167.117 24.7699 164.587 25.7298 162.754 27.6496C160.922 29.6567 159.962 32.2745 160.049 34.9797C160.049 38.1212 160.922 40.4773 162.667 42.1353C164.412 43.7933 166.943 44.5786 170.346 44.5786C172.702 44.5786 174.971 44.2296 177.24 43.5315V18.0507H172.877ZM172.877 40.6518C172.004 40.9136 171.131 41.0009 170.172 40.9136C166.419 40.9136 164.587 38.9065 164.587 34.8052C164.499 33.0599 165.023 31.4019 165.983 30.0057C167.03 28.8713 168.514 28.2604 170.084 28.3477C171.044 28.3477 172.004 28.5222 172.877 28.784V40.6518Z"/><path fill="#FF5800" d="M197.485 33.6708C197.572 31.3146 196.874 28.9585 195.303 27.2133C193.82 25.5553 191.638 24.6827 189.457 24.8572C187.013 24.7699 184.657 25.7298 182.999 27.5623C181.428 29.3949 180.643 31.8382 180.643 34.8924C180.643 37.9466 181.516 40.39 183.174 42.048C184.832 43.706 187.275 44.5786 190.417 44.5786C192.424 44.5786 194.431 44.2296 196.263 43.5315L195.827 40.2155C194.169 40.7391 192.511 41.0009 190.766 41.0009C187.101 41.0009 185.181 39.3429 185.094 36.0269H197.398L197.485 33.6708ZM185.181 32.7109C185.268 31.4892 185.704 30.2675 186.49 29.3076C187.188 28.5222 188.235 28.0859 189.369 28.0859C190.417 28.0859 191.464 28.5222 192.162 29.3076C192.947 30.2675 193.296 31.4892 193.209 32.7109H185.181Z"/></g><g id="Vector_2"><path fill="url(#paint0_linear_93_14338)" d="M18.161 17.2652C16.6776 20.1449 15.4559 22.501 14.5832 24.159C13.7979 25.6425 13.0125 27.0387 12.0526 28.3477C11.3545 29.3075 10.5691 30.1802 9.60925 30.9655C8.56209 31.7509 7.42767 32.5363 6.29325 33.2344L5.50789 32.1C6.29325 31.4891 7.07862 30.8783 7.77673 30.2674C8.56209 29.4821 9.34746 28.6094 9.9583 27.7368C10.9182 26.3406 11.7908 24.8571 12.6635 23.3737C13.7106 21.6284 14.9323 19.185 16.4158 16.1308C17.2884 14.211 18.3356 12.4658 19.47 10.7205C20.2554 9.49882 21.2152 8.3644 22.2624 7.4045C23.0478 6.7064 23.9204 6.09556 24.8803 5.7465C26.451 5.0484 28.1963 5.0484 29.767 5.83377C30.8142 6.35735 31.6868 7.14271 32.3849 8.01535C33.6066 9.49882 34.6538 11.0696 35.6137 12.7276C36.8353 14.7346 38.2316 17.4398 39.8023 20.843C40.6749 22.6755 41.6348 24.5081 42.7692 26.2533C43.5546 27.5623 44.5145 28.784 45.5617 29.8311C46.5215 30.791 47.5687 31.4891 48.7031 32.1C50.0121 32.7108 51.321 33.2344 52.63 33.6707L53.5899 35.2414C51.9319 35.0669 50.3611 34.7179 48.7904 34.1943C47.3942 33.6707 45.998 32.8853 44.8635 31.9254C43.5546 30.7038 42.3329 29.3948 41.373 27.9113C40.0641 25.9043 38.9297 23.8972 37.8825 21.7157C36.399 18.7487 35.0901 16.3053 34.1302 14.3856C33.3448 12.9021 32.3849 11.4186 31.3378 10.0224C30.7269 9.14977 30.0288 8.45166 29.1562 7.92808C28.5453 7.57903 27.9345 7.4045 27.2364 7.31724C26.5383 7.31724 25.8402 7.4045 25.2293 7.75356C24.444 8.18987 23.7459 8.71345 23.135 9.32429C22.2624 10.2842 21.477 11.3313 20.8662 12.3785C19.9936 13.6874 19.1209 15.3454 18.161 17.2652Z"/><path fill="url(#paint1_linear_93_14338)" d="M40.2386 36.2013C42.4202 36.2886 44.6018 36.2013 46.6961 35.8523C48.6159 35.5905 50.5357 35.1542 52.3682 34.5433L52.63 35.6778C49.5758 37.5975 45.4744 38.3829 40.1513 38.2084C38.057 38.1211 35.9627 37.8593 33.8684 37.3358C32.2977 36.8994 30.7269 36.3759 29.2435 35.6778C28.1963 35.2414 27.2364 34.8051 26.2765 34.2815C25.4039 33.758 24.444 33.3216 23.4841 32.8853C22.5242 32.449 21.5643 32.1 20.5171 31.8382C19.47 31.5764 18.4228 31.4019 17.3757 31.3146C15.6304 31.2273 13.9724 31.4019 12.3144 31.6636C10.5691 32.0127 8.91115 32.449 7.25315 33.0599L6.55504 32.1872L7.95125 31.4891C9.34746 30.7038 10.9182 30.0929 12.4889 29.7439C14.1469 29.3075 15.8049 29.133 17.5502 29.2203C18.7719 29.2203 19.9936 29.3948 21.128 29.7439C22.1751 30.0056 23.2223 30.442 24.1822 30.8783C25.1421 31.3146 26.102 31.8382 27.1491 32.3618C28.1963 32.8853 29.1562 33.4089 30.2033 33.8452C31.5996 34.4561 33.083 34.9796 34.5665 35.416C36.3118 35.8523 38.2316 36.1141 40.2386 36.2013Z"/><path fill="url(#paint2_linear_93_14338)" d="M43.2928 20.3194C42.5074 20.3194 41.7221 20.494 41.1112 20.843C40.1513 21.4539 39.366 22.152 38.6679 23.0246C37.5334 24.4208 36.399 25.9043 35.4391 27.3878C34.2174 29.2203 32.6467 31.5764 30.9014 34.5433C28.4581 38.4702 26.102 41.3499 24.0077 43.0951C22.1751 44.7531 19.819 45.6257 17.3757 45.6257C14.9323 45.5385 12.5762 44.3168 10.4819 41.9607C8.03852 39.081 6.38052 35.765 5.50789 32.1L7.51494 32.449C8.38757 35.3287 9.87104 38.0339 11.7908 40.39C13.5361 42.397 15.3686 43.3569 17.2884 43.4442C19.2955 43.4442 21.3025 42.5715 22.786 41.1753C25.2293 38.9065 27.2364 36.2886 28.8944 33.4089C30.9014 30.1802 32.5594 27.5623 33.9557 25.5552C35.0028 23.8972 36.2245 22.3265 37.5334 20.843C38.3188 19.8831 39.2787 19.185 40.4131 18.5742C41.2858 18.2251 42.3329 18.0506 43.2928 18.0506C45.6489 18.1379 47.656 19.5341 49.4885 22.2392C51.321 24.9444 52.8918 29.0458 54.288 34.6306L52.1936 33.8452C51.2338 30.2674 49.8375 26.8642 48.005 23.7227C46.5215 21.5411 44.9508 20.4067 43.2928 20.3194Z"/><path fill="url(#paint3_linear_93_14338)" d="M35.4391 51.5596C36.5736 51.5596 37.708 51.2106 38.6679 50.5125C40.2386 49.2035 41.5475 47.8073 42.682 46.1493C43.9037 44.4913 44.9508 43.1824 45.8234 42.048C46.6088 41.0008 47.3942 40.0409 48.1795 39.1683C48.9649 38.2956 49.663 37.5975 50.3611 36.8122C51.0592 36.0268 52.0191 35.1542 53.1535 34.0198L54.4625 34.7179C53.4153 35.8523 52.5427 36.8994 51.8446 37.6848C51.1465 38.4702 50.4484 39.3428 49.7503 40.2154C49.0522 41.0881 48.3541 42.048 47.4814 43.0951L44.34 47.1965C43.031 49.029 41.4603 50.687 39.715 52.1705C38.4061 53.1304 36.9226 53.5667 35.2646 53.5667C34.4792 53.5667 33.6939 53.3922 32.9085 53.1304C32.0359 52.7813 31.1632 52.2577 30.4651 51.6469C29.3307 50.687 28.1963 49.6399 27.2364 48.5054C26.0147 47.1092 24.444 45.364 22.5242 43.1824C21.0407 41.5244 19.7318 40.1282 18.5974 38.9938C17.5502 37.9466 16.3285 37.074 15.1068 36.2886C13.9724 35.5905 12.7507 35.0669 11.4418 34.7179C9.9583 34.2815 8.47483 34.0198 6.99136 33.8452L7.51494 32.2745C9.08567 32.3618 10.6564 32.6235 12.2271 32.9726C13.6234 33.2344 14.9323 33.758 16.154 34.4561C17.4629 35.2414 18.7719 36.1141 19.9063 37.2485C21.3898 38.6447 22.786 40.1282 24.0949 41.6116C26.0147 43.7932 27.5855 45.5385 28.8071 46.8474C30.0288 48.1564 30.9887 49.1163 31.7741 49.8144C32.3849 50.338 33.083 50.8615 33.7811 51.2106C34.3047 51.4724 34.8283 51.5596 35.4391 51.5596Z"/></g></g></g><defs><linearGradient id="paint0_linear_93_14338" x1="4.84393" x2="51.6007" y1="44.5861" y2="36.6678" gradientUnits="userSpaceOnUse"><stop offset="0.2" stop-color="#FF5800"/><stop offset="0.24" stop-color="#FF7000"/><stop offset="0.32" stop-color="#FF9500"/><stop offset="0.4" stop-color="#FFB200"/><stop offset="0.47" stop-color="#FFC600"/><stop offset="0.55" stop-color="#FFD300"/><stop offset="0.62" stop-color="#FFD700"/><stop offset="0.66" stop-color="#FFCE00"/><stop offset="0.72" stop-color="#FFB600"/><stop offset="0.81" stop-color="#FF8E00"/><stop offset="0.9" stop-color="#FF5800"/></linearGradient><linearGradient id="paint1_linear_93_14338" x1="5.37808" x2="54.4439" y1="29.4002" y2="29.4002" gradientUnits="userSpaceOnUse"><stop offset="0.09" stop-color="#FF5800"/><stop offset="0.19" stop-color="#FF7907"/><stop offset="0.31" stop-color="#FF990E"/><stop offset="0.4" stop-color="#FFAD12"/><stop offset="0.47" stop-color="#FFB414"/><stop offset="0.53" stop-color="#FFAD12"/><stop offset="0.62" stop-color="#FF980E"/><stop offset="0.73" stop-color="#FF7707"/><stop offset="0.82" stop-color="#FF5800"/></linearGradient><linearGradient id="paint2_linear_93_14338" x1="6.63533" x2="55.4954" y1="20.5943" y2="26.5404" gradientUnits="userSpaceOnUse"><stop offset="0.5" stop-color="#FF5800"/><stop offset="0.64" stop-color="#CE056A" stop-opacity="0.99"/><stop offset="0.76" stop-color="#CF0768" stop-opacity="0.99"/><stop offset="0.81" stop-color="#D20D60" stop-opacity="0.99"/><stop offset="0.85" stop-color="#D81753" stop-opacity="0.99"/><stop offset="0.88" stop-color="#E12541" stop-opacity="0.99"/><stop offset="0.91" stop-color="#EC3829"/><stop offset="0.94" stop-color="#F94E0C"/><stop offset="0.95" stop-color="#FF5800"/></linearGradient><linearGradient id="paint3_linear_93_14338" x1="7.09081" x2="55.6225" y1="33.6011" y2="30.5036" gradientUnits="userSpaceOnUse"><stop stop-color="#FF5800"/><stop offset="0.06" stop-color="#FC5400"/><stop offset="0.13" stop-color="#F54700"/><stop offset="0.19" stop-color="#E83300"/><stop offset="0.26" stop-color="#D61600"/><stop offset="0.3" stop-color="#C80000"/><stop offset="0.48" stop-color="#C80000"/><stop offset="0.91" stop-color="#FF5800"/></linearGradient></defs></svg>

<svg xmlns="http://www.w3.org/2000/svg" fill="none" aria-hidden="true" viewBox="0 0 203 59"><path fill="#FF5800" d="M72.175 24.77c-1.134 0-2.181.087-3.229.349-.872.175-1.745.436-2.53.873l.261 3.141a11.838 11.838 0 0 1 2.531-.523c.785-.088 1.484-.175 2.269-.175 2.88 0 4.276 1.134 4.276 3.316v.698c-.96-.174-1.833-.262-2.793-.174-2.094-.088-4.188.436-5.933 1.657a5.513 5.513 0 0 0-2.182 4.625c0 4.015 2.792 6.022 8.29 6.022a23.75 23.75 0 0 0 6.981-1.047V31.925c0-4.713-2.705-7.156-7.941-7.156Zm3.578 16.144c-.873.261-1.833.349-2.793.349-2.617 0-3.926-.96-3.926-2.793 0-1.832 1.396-2.967 4.275-2.967.786 0 1.571 0 2.357.175l.087 5.236Zm6.283-15.62h4.8l4.624 14.485 4.712-14.486h4.538l-7.155 18.762H89.19l-7.155-18.761ZM109 24.77c-1.134 0-2.182.087-3.229.349-.872.175-1.745.436-2.53.873l.349 3.141a11.836 11.836 0 0 1 2.53-.523c.786-.088 1.484-.175 2.269-.175 2.88 0 4.276 1.047 4.276 3.316v.698c-.96-.174-1.92-.174-2.792-.174-2.095-.088-4.189.436-5.934 1.657a5.514 5.514 0 0 0-2.182 4.625c0 4.015 2.793 6.022 8.29 6.022a23.75 23.75 0 0 0 6.981-1.047V31.925c-.087-4.713-2.705-7.156-8.028-7.156Zm3.665 16.144c-.873.261-1.832.349-2.792.349-2.618 0-3.927-.96-3.927-2.793 0-1.832 1.396-2.967 4.276-2.967.785 0 1.57 0 2.356.175l.087 5.236Zm20.943-7.941c0-1.746-.349-2.88-.96-3.49-.61-.612-1.832-.96-3.49-.96-.524 0-.96.087-1.396.174-.524.087-1.048.174-1.571.349v15.096h-4.363V26.166c1.221-.436 2.53-.872 3.839-1.047 1.397-.262 2.793-.35 4.189-.35 5.498 0 8.203 2.444 8.203 7.418v11.868h-4.363l-.088-11.082Zm15.097-8.203c-1.135 0-2.182.087-3.229.349-.873.175-1.745.436-2.531.873l.349 3.141a11.845 11.845 0 0 1 2.531-.523c.785-.088 1.484-.175 2.269-.175 2.88 0 4.276 1.047 4.276 3.316v.698c-.96-.174-1.833-.174-2.793-.174-2.094-.088-4.188.436-5.933 1.657-1.397 1.135-2.269 2.793-2.182 4.625 0 4.015 2.792 6.022 8.29 6.022a23.75 23.75 0 0 0 6.981-1.047V31.925c-.087-4.713-2.792-7.156-8.028-7.156Zm3.578 16.144c-.873.261-1.833.349-2.706.349-2.617 0-3.926-.96-3.926-2.793 0-1.832 1.396-2.967 4.275-2.967.786 0 1.571 0 2.357.175v5.236Zm20.594-22.864v7.156c-1.047-.262-2.095-.436-3.142-.349-2.618-.087-5.148.873-6.981 2.793a10.348 10.348 0 0 0-2.705 7.33c0 3.141.873 5.497 2.618 7.155 1.745 1.658 4.276 2.444 7.679 2.444 2.356 0 4.625-.35 6.894-1.047V18.05h-4.363Zm0 22.602c-.873.262-1.746.349-2.705.262-3.753 0-5.585-2.008-5.585-6.109-.088-1.745.436-3.403 1.396-4.8a5.158 5.158 0 0 1 4.101-1.657c.96 0 1.92.174 2.793.436v11.868Zm24.608-6.982c.087-2.355-.611-4.712-2.182-6.457a7.122 7.122 0 0 0-5.846-2.356c-2.444-.087-4.8.873-6.458 2.705-1.571 1.833-2.356 4.276-2.356 7.33 0 3.055.873 5.498 2.531 7.156 1.658 1.658 4.101 2.53 7.243 2.53 2.007 0 4.014-.348 5.846-1.047l-.436-3.316a16.573 16.573 0 0 1-5.061.786c-3.665 0-5.585-1.658-5.672-4.974h12.304l.087-2.356Zm-12.304-.96c.087-1.22.523-2.443 1.309-3.402.698-.786 1.745-1.222 2.879-1.222 1.048 0 2.095.436 2.793 1.222.785.96 1.134 2.181 1.047 3.403h-8.028Z"/><path fill="url(#a)" d="M18.161 17.265a953.466 953.466 0 0 1-3.578 6.894c-.785 1.483-1.57 2.88-2.53 4.189a13.826 13.826 0 0 1-2.444 2.617 44.376 44.376 0 0 1-3.316 2.27L5.508 32.1c.785-.61 1.57-1.222 2.269-1.833.785-.785 1.57-1.658 2.181-2.53.96-1.396 1.833-2.88 2.706-4.363 1.047-1.746 2.268-4.189 3.752-7.243.872-1.92 1.92-3.665 3.054-5.41a17.051 17.051 0 0 1 2.792-3.317c.786-.698 1.658-1.308 2.618-1.657 1.571-.699 3.316-.699 4.887.087 1.047.523 1.92 1.309 2.618 2.181 1.222 1.484 2.269 3.055 3.229 4.713 1.221 2.007 2.618 4.712 4.188 8.115.873 1.832 1.833 3.665 2.967 5.41a18.75 18.75 0 0 0 2.793 3.578c.96.96 2.007 1.658 3.141 2.269a36.827 36.827 0 0 0 3.927 1.57l.96 1.571a22.431 22.431 0 0 1-4.8-1.047c-1.396-.523-2.792-1.309-3.926-2.269-1.31-1.221-2.531-2.53-3.491-4.014a53.8 53.8 0 0 1-3.49-6.195c-1.484-2.967-2.793-5.41-3.753-7.33a33.488 33.488 0 0 0-2.792-4.364c-.611-.872-1.31-1.57-2.182-2.094-.61-.349-1.221-.524-1.92-.61-.698 0-1.396.087-2.007.436a9.397 9.397 0 0 0-2.094 1.57 18.446 18.446 0 0 0-2.269 3.055c-.872 1.308-1.745 2.966-2.705 4.886Z"/><path fill="url(#b)" d="M40.239 36.201c2.181.088 4.363 0 6.457-.349 1.92-.261 3.84-.698 5.672-1.309l.262 1.135c-3.054 1.92-7.156 2.705-12.479 2.53-2.094-.087-4.188-.349-6.283-.872-1.57-.437-3.141-.96-4.625-1.658a30.898 30.898 0 0 1-2.966-1.396c-.873-.524-1.833-.96-2.793-1.397a17.08 17.08 0 0 0-2.967-1.047 19.673 19.673 0 0 0-3.141-.523c-1.746-.088-3.404.087-5.062.349-1.745.349-3.403.785-5.06 1.396l-.699-.873 1.396-.698a16.856 16.856 0 0 1 4.538-1.745 16.386 16.386 0 0 1 5.061-.524c1.222 0 2.444.175 3.578.524 1.047.262 2.094.698 3.054 1.134.96.437 1.92.96 2.967 1.484 1.047.523 2.007 1.047 3.054 1.483a37.025 37.025 0 0 0 4.363 1.571c1.746.436 3.666.698 5.673.785Z"/><path fill="url(#c)" d="M43.293 20.32c-.786 0-1.57.174-2.182.523a9.746 9.746 0 0 0-2.443 2.182c-1.135 1.396-2.269 2.88-3.229 4.363-1.222 1.832-2.792 4.188-4.538 7.155-2.443 3.927-4.799 6.807-6.893 8.552-1.833 1.658-4.189 2.53-6.632 2.53-2.444-.087-4.8-1.308-6.894-3.664-2.443-2.88-4.101-6.196-4.974-9.861l2.007.349c.873 2.88 2.356 5.585 4.276 7.941 1.745 2.007 3.578 2.967 5.497 3.054 2.008 0 4.014-.873 5.498-2.269 2.443-2.268 4.45-4.886 6.108-7.766 2.007-3.229 3.665-5.847 5.062-7.854 1.047-1.658 2.268-3.229 3.577-4.712.786-.96 1.746-1.658 2.88-2.269.873-.349 1.92-.523 2.88-.523 2.356.087 4.363 1.483 6.196 4.188 1.832 2.705 3.403 6.807 4.799 12.392l-2.094-.786c-.96-3.578-2.357-6.98-4.189-10.122-1.483-2.182-3.054-3.316-4.712-3.404Z"/><path fill="url(#d)" d="M35.44 51.56a5.484 5.484 0 0 0 3.228-1.047c1.57-1.31 2.88-2.706 4.014-4.364 1.222-1.658 2.269-2.967 3.141-4.101a41.757 41.757 0 0 1 2.356-2.88c.786-.872 1.484-1.57 2.182-2.356.698-.785 1.658-1.658 2.793-2.792l1.308.698c-1.047 1.134-1.92 2.181-2.617 2.967-.698.785-1.397 1.658-2.095 2.53-.698.873-1.396 1.833-2.269 2.88l-3.141 4.102c-1.309 1.832-2.88 3.49-4.625 4.973-1.309.96-2.792 1.397-4.45 1.397-.786 0-1.571-.175-2.357-.437a8.726 8.726 0 0 1-2.443-1.483c-1.134-.96-2.269-2.007-3.229-3.142-1.221-1.396-2.792-3.141-4.712-5.323a105.558 105.558 0 0 0-3.927-4.188c-1.047-1.047-2.269-1.92-3.49-2.705a13.675 13.675 0 0 0-3.665-1.571c-1.484-.437-2.967-.698-4.45-.873l.523-1.57c1.57.087 3.141.349 4.712.698 1.396.261 2.705.785 3.927 1.483 1.309.785 2.618 1.658 3.752 2.792a65.435 65.435 0 0 1 4.189 4.364 252.47 252.47 0 0 0 4.712 5.235c1.222 1.31 2.182 2.27 2.967 2.967.61.524 1.309 1.047 2.007 1.397.524.261 1.047.349 1.658.349Z"/><defs><linearGradient id="a" x1="4.844" x2="51.601" y1="44.586" y2="36.668" gradientUnits="userSpaceOnUse"><stop offset=".2" stop-color="#FF5800"/><stop offset=".24" stop-color="#FF7000"/><stop offset=".32" stop-color="#FF9500"/><stop offset=".4" stop-color="#FFB200"/><stop offset=".47" stop-color="#FFC600"/><stop offset=".55" stop-color="#FFD300"/><stop offset=".62" stop-color="gold"/><stop offset=".66" stop-color="#FFCE00"/><stop offset=".72" stop-color="#FFB600"/><stop offset=".81" stop-color="#FF8E00"/><stop offset=".9" stop-color="#FF5800"/></linearGradient><linearGradient id="b" x1="5.378" x2="54.444" y1="29.4" y2="29.4" gradientUnits="userSpaceOnUse"><stop offset=".09" stop-color="#FF5800"/><stop offset=".19" stop-color="#FF7907"/><stop offset=".31" stop-color="#FF990E"/><stop offset=".4" stop-color="#FFAD12"/><stop offset=".47" stop-color="#FFB414"/><stop offset=".53" stop-color="#FFAD12"/><stop offset=".62" stop-color="#FF980E"/><stop offset=".73" stop-color="#FF7707"/><stop offset=".82" stop-color="#FF5800"/></linearGradient><linearGradient id="c" x1="6.635" x2="55.495" y1="20.594" y2="26.54" gradientUnits="userSpaceOnUse"><stop offset=".5" stop-color="#FF5800"/><stop offset=".64" stop-color="#CE056A" stop-opacity=".99"/><stop offset=".76" stop-color="#CF0768" stop-opacity=".99"/><stop offset=".81" stop-color="#D20D60" stop-opacity=".99"/><stop offset=".85" stop-color="#D81753" stop-opacity=".99"/><stop offset=".88" stop-color="#E12541" stop-opacity=".99"/><stop offset=".91" stop-color="#EC3829"/><stop offset=".94" stop-color="#F94E0C"/><stop offset=".95" stop-color="#FF5800"/></linearGradient><linearGradient id="d" x1="7.091" x2="55.623" y1="33.601" y2="30.504" gradientUnits="userSpaceOnUse"><stop stop-color="#FF5800"/><stop offset=".06" stop-color="#FC5400"/><stop offset=".13" stop-color="#F54700"/><stop offset=".19" stop-color="#E83300"/><stop offset=".26" stop-color="#D61600"/><stop offset=".3" stop-color="#C80000"/><stop offset=".48" stop-color="#C80000"/><stop offset=".91" stop-color="#FF5800"/></linearGradient></defs></svg>
